public/images/ifos/helmet-bg.svg

<svg width="437" height="112" viewBox="0 0 437 112" fill="none" xmlns="http://www.w3.org/2000/svg">
<g clip-path="url(#clip0)">
<rect width="437" height="112" fill="black"/>
<g opacity="0.5">
<path opacity="0.6" d="M306.371 9.24715L396.108 55.3736C397.108 55.8875 397.737 56.9174 397.737 58.0417V181.333C397.737 183.504 395.503 184.956 393.52 184.075L303.783 144.239C302.699 143.758 302 142.683 302 141.497V11.9153C302 9.67052 304.375 8.22093 306.371 9.24715Z" fill="#45403D"/>
<path d="M313.537 20.4504L390.747 60.4047C391.743 60.9201 392.369 61.9478 392.369 63.0691V170.137C392.369 172.31 390.129 173.763 388.145 172.876L310.934 138.37C309.854 137.887 309.158 136.814 309.158 135.631V23.1148C309.158 20.8664 311.54 19.4171 313.537 20.4504Z" stroke="#45403D" stroke-width="2" stroke-dasharray="5 5"/>
</g>
<path opacity="0.6" d="M333.214 -33.7004L422.951 12.4261C423.95 12.94 424.579 13.9699 424.579 15.0942V138.386C424.579 140.556 422.346 142.008 420.362 141.128L330.625 101.291C329.541 100.81 328.842 99.7355 328.842 98.5495V-31.0322C328.842 -33.277 331.217 -34.7266 333.214 -33.7004Z" fill="#45403D"/>
<path d="M340.379 -22.4974L417.589 17.457C418.585 17.9723 419.21 19.0001 419.21 20.1214V127.189C419.21 129.363 416.971 130.815 414.986 129.928L337.776 95.4219C336.696 94.939 336 93.8663 336 92.6829V-19.833C336 -22.0814 338.382 -23.5307 340.379 -22.4974Z" stroke="#45403D" stroke-width="2" stroke-dasharray="5 5"/>
<path d="M340.026 79.0264L472 3.42111" stroke="url(#paint0_linear)" stroke-width="3"/>
<circle cx="374.474" cy="59.7895" r="3.57895" transform="rotate(-180 374.474 59.7895)" fill="#FFA246"/>
<circle cx="339.579" cy="79.4738" r="3.57895" transform="rotate(-180 339.579 79.4738)" fill="#FFA246"/>
<circle cx="428.158" cy="28.4738" r="3.57895" transform="rotate(-180 428.158 28.4738)" fill="#FFA246"/>
<g opacity="0.5">
<path opacity="0.6" d="M131.628 85.4898L44.1441 40.5213C43.1442 40.0073 42.5156 38.9774 42.5156 37.8531V-82.3859C42.5156 -84.5563 44.7491 -86.0085 46.7329 -85.1279L134.217 -46.2914C135.301 -45.8102 136 -44.7355 136 -43.5495V82.8217C136 85.0665 133.625 86.5161 131.628 85.4898Z" fill="#45403D"/>
<path d="M124.632 74.55L49.3791 35.6088C48.3832 35.0934 47.7578 34.0657 47.7578 32.9444V-71.4522C47.7578 -73.6258 49.9974 -75.078 51.9819 -74.1911L127.234 -40.56C128.315 -40.0772 129.01 -39.0044 129.01 -37.8211V71.8856C129.01 74.134 126.629 75.5833 124.632 74.55Z" stroke="#45403D" stroke-width="2" stroke-dasharray="5 5"/>
</g>
<path opacity="0.6" d="M105.418 127.427L17.9337 82.4581C16.9338 81.9441 16.3052 80.9142 16.3052 79.7899V-40.4491C16.3052 -42.6196 18.5387 -44.0717 20.5224 -43.1911L108.007 -4.35465C109.091 -3.87342 109.789 -2.79873 109.789 -1.61269V124.758C109.789 127.003 107.414 128.453 105.418 127.427Z" fill="#45403D"/>
<path d="M98.4212 116.487L23.1686 77.5453C22.1727 77.03 21.5474 76.0022 21.5474 74.8809V-29.5156C21.5474 -31.6893 23.7869 -33.1415 25.7714 -32.2546L101.024 1.37648C102.104 1.85929 102.8 2.93208 102.8 4.1154V113.822C102.8 116.07 100.418 117.52 98.4212 116.487Z" stroke="#45403D" stroke-width="2" stroke-dasharray="5 5"/>
<path d="M98.8684 17.4053L-30 91.2316" stroke="url(#paint1_linear)" stroke-width="3"/>
<circle cx="65.2316" cy="36.1893" r="3.49474" fill="#FFA246"/>
<circle cx="99.3053" cy="16.9684" r="3.49474" fill="#FFA246"/>
<circle cx="12.8107" cy="66.7684" r="3.49474" fill="#FFA246"/>
<mask id="mask0" mask-type="alpha" maskUnits="userSpaceOnUse" x="123" y="41" width="53" height="33">
<path d="M148.746 41.687H149.574C165.733 41.687 174.002 58.0024 174.002 68.7876C175.154 69.4785 175.527 70.9722 174.836 72.1238C174.397 72.8562 173.605 73.3043 172.751 73.3043H125.384C124.067 73.3043 123 72.2369 123 70.9201C123 70.017 123.51 69.1915 124.318 68.7876C124.318 58.0024 132.409 41.687 148.746 41.687Z" fill="white"/>
</mask>
<g mask="url(#mask0)">
<path d="M148.746 41.687H149.574C165.733 41.687 174.002 58.0024 174.002 68.7876C175.154 69.4785 175.527 70.9722 174.836 72.1238C174.397 72.8562 173.605 73.3043 172.751 73.3043H125.384C124.067 73.3043 123 72.2369 123 70.9201C123 70.017 123.51 69.1915 124.318 68.7876C124.318 58.0024 132.409 41.687 148.746 41.687Z" fill="#FF8200"/>
<path fill-rule="evenodd" clip-rule="evenodd" d="M139.45 41.4797H149.55C160.504 41.4797 169.151 56.814 169.151 69.3322L172.059 71.0038C172.645 71.3405 172.846 72.0883 172.51 72.6741C172.291 73.0538 171.887 73.2878 171.449 73.2878H117.607C116.931 73.2878 116.383 72.7401 116.383 72.0644C116.383 71.5886 116.659 71.156 117.091 70.9552L120.578 69.3322C120.578 56.814 128.496 41.4797 139.45 41.4797Z" fill="#FF9600"/>
<path d="M123.726 60.0852H173.72V65.0807H123.726V60.0852Z" fill="black"/>
<path d="M149.163 69.6179C153.217 69.6179 156.503 66.3315 156.503 62.2776C156.503 58.2236 153.217 54.9373 149.163 54.9373C145.109 54.9373 141.822 58.2236 141.822 62.2776C141.822 66.3315 145.109 69.6179 149.163 69.6179Z" fill="black" fill-opacity="0.119427"/>
</g>
<path d="M148.755 69.6179C152.809 69.6179 156.095 66.3315 156.095 62.2776C156.095 58.2236 152.809 54.9373 148.755 54.9373C144.701 54.9373 141.415 58.2236 141.415 62.2776C141.415 66.3315 144.701 69.6179 148.755 69.6179Z" fill="white"/>
<g filter="url(#filter0_i)">
<path d="M148.755 69.6179C152.809 69.6179 156.095 66.3315 156.095 62.2776C156.095 58.2236 152.809 54.9373 148.755 54.9373C144.701 54.9373 141.415 58.2236 141.415 62.2776C141.415 66.3315 144.701 69.6179 148.755 69.6179Z" fill="white"/>
</g>
<path d="M148.755 68.4887C152.185 68.4887 154.966 65.7079 154.966 62.2775C154.966 58.8472 152.185 56.0664 148.755 56.0664C145.324 56.0664 142.543 58.8472 142.543 62.2775C142.543 65.7079 145.324 68.4887 148.755 68.4887Z" stroke="black" stroke-width="2.25838"/>
<path d="M146.174 45.8438C144.993 43.4597 144.621 42.7487 144.857 41.7999C145.224 40.3258 146.885 38.9769 148.789 39.0003C150.451 39.0208 151.97 40.0847 152.618 41.6963C152.719 42.0215 152.499 43.1428 151.203 45.9117C150.396 47.6722 149.515 49.7346 148.762 51.1319C147.908 49.3652 147.045 47.6024 146.174 45.8438Z" fill="#FFAA30"/>
<path d="M145.799 45.8404C144.625 43.469 144.254 42.7618 144.489 41.8182C144.854 40.3519 146.505 39.0102 148.399 39.0335C150.052 39.0539 151.563 40.1121 152.207 41.7151C152.307 42.0385 152.089 43.1538 150.8 45.9079C149.997 47.659 149.121 49.7104 148.372 51.1002C147.523 49.3429 146.665 47.5896 145.799 45.8404Z" fill="#FFAA30"/>
<path d="M137.801 49.2695C136.966 48.2707 136.036 47.3597 135.026 46.5495C134.894 46.4969 133.091 45.8156 131.567 46.9523C130.299 47.8981 129.772 49.695 130.325 51.3515C131.355 51.2383 132.615 51.2031 134.03 51.3927C137.104 51.8043 139.397 53.0726 140.733 53.9743C140.145 52.6572 139.227 50.9749 137.801 49.2695Z" fill="#FFAA30"/>
<path d="M140.423 53.5767C139.85 52.3271 138.958 50.7305 137.574 49.1108C136.764 48.1622 135.862 47.2966 134.883 46.5264C134.755 46.4761 133.009 45.8261 131.538 46.8995C130.314 47.7927 129.807 49.4943 130.347 51.0654C131.343 50.9607 132.562 50.9304 133.931 51.1137C136.906 51.5112 139.128 52.7189 140.423 53.5767Z" fill="#FFAA30"/>
<path d="M159.584 49.6269C160.419 48.6281 161.349 47.7171 162.358 46.907C162.491 46.8543 164.294 46.173 165.818 47.3097C167.085 48.2555 167.613 50.0524 167.06 51.7089C166.03 51.5957 164.77 51.5605 163.354 51.7502C160.281 52.1617 157.988 53.4301 156.651 54.3318C157.24 53.0147 158.158 51.3323 159.584 49.6269Z" fill="#FF8A00"/>
<path d="M156.962 53.5767C157.535 52.3271 158.427 50.7305 159.81 49.1108C160.621 48.1622 161.523 47.2966 162.502 46.5264C162.63 46.4761 164.376 45.8261 165.847 46.8995C167.071 47.7927 167.577 49.4943 167.038 51.0654C166.042 50.9607 164.823 50.9304 163.453 51.1137C160.478 51.5112 158.257 52.7189 156.962 53.5767Z" fill="#FFAA30"/>
<path d="M191.137 70.6701V58.6651H203.888V70.6701H208.989V42.9356H203.888V53.9106H191.137V42.9356H186.036V70.6701H191.137ZM223.972 71.0663C225.3 71.0663 226.528 70.9277 227.658 70.6503C228.787 70.373 229.776 70.0098 230.626 69.5607L230.387 65.4006C228.554 66.4835 226.562 67.025 224.41 67.025C222.843 67.025 221.501 66.5958 220.385 65.7374C219.269 64.8789 218.579 63.578 218.313 61.8347H231.184C231.397 60.831 231.503 59.9329 231.503 59.1405C231.503 57.5293 231.177 56.0765 230.527 54.7822C229.876 53.4879 228.906 52.4578 227.618 51.6918C226.329 50.9258 224.755 50.5428 222.896 50.5428C220.877 50.5428 219.137 50.9984 217.676 51.9097C216.214 52.821 215.099 54.0426 214.328 55.5746C213.558 57.1066 213.173 58.7971 213.173 60.6461C213.173 62.5743 213.578 64.3242 214.388 65.8958C215.198 67.4675 216.42 68.7221 218.054 69.6598C219.688 70.5975 221.66 71.0663 223.972 71.0663ZM226.482 58.5066H218.433C218.698 57.3179 219.203 56.3671 219.947 55.6539C220.691 54.9407 221.674 54.5841 222.896 54.5841C224.118 54.5841 225.021 54.9803 225.605 55.7727C226.19 56.5652 226.482 57.4764 226.482 58.5066ZM241.784 71.0663L242.222 67.025C241.478 67.025 240.954 66.9788 240.648 66.8864C240.343 66.7939 240.13 66.5298 240.01 66.0939C239.891 65.6581 239.831 64.9119 239.831 63.8554V40.9546H234.89V65.876C234.89 67.408 235.315 68.6561 236.165 69.6202C237.015 70.5843 238.29 71.0663 239.991 71.0663H241.784ZM250.311 70.6701V56.2878C251.321 55.152 252.609 54.5841 254.176 54.5841C255.505 54.5841 256.474 55.0199 257.085 55.8916C257.696 56.7633 258.002 58.1368 258.002 60.0122V70.6701H262.943V59.6556C262.943 58.0443 263.275 56.7963 263.939 55.9114C264.603 55.0265 265.586 54.5841 266.888 54.5841C268.216 54.5841 269.173 55.0199 269.757 55.8916C270.342 56.7633 270.634 58.1368 270.634 60.0122V70.6701H275.575V59.6556C275.575 56.7765 274.931 54.5379 273.642 52.9399C272.354 51.3418 270.381 50.5428 267.725 50.5428C266.37 50.5428 265.135 50.7805 264.019 51.256C262.903 51.7314 262 52.405 261.309 53.2766C260.061 51.4541 258.161 50.5428 255.611 50.5428C253.512 50.5428 251.56 51.1767 249.753 52.4446L249.594 50.8598H245.37V70.6701H250.311ZM289.601 71.0663C290.93 71.0663 292.158 70.9277 293.287 70.6503C294.416 70.373 295.406 70.0098 296.256 69.5607L296.017 65.4006C294.184 66.4835 292.192 67.025 290.04 67.025C288.472 67.025 287.131 66.5958 286.015 65.7374C284.899 64.8789 284.209 63.578 283.943 61.8347H296.814C297.026 60.831 297.133 59.9329 297.133 59.1405C297.133 57.5293 296.807 56.0765 296.156 54.7822C295.506 53.4879 294.536 52.4578 293.248 51.6918C291.959 50.9258 290.385 50.5428 288.526 50.5428C286.507 50.5428 284.767 50.9984 283.305 51.9097C281.844 52.821 280.729 54.0426 279.958 55.5746C279.188 57.1066 278.803 58.7971 278.803 60.6461C278.803 62.5743 279.208 64.3242 280.018 65.8958C280.828 67.4675 282.05 68.7221 283.684 69.6598C285.318 70.5975 287.29 71.0663 289.601 71.0663ZM292.112 58.5066H284.063C284.328 57.3179 284.833 56.3671 285.577 55.6539C286.321 54.9407 287.304 54.5841 288.526 54.5841C289.748 54.5841 290.651 54.9803 291.235 55.7727C291.82 56.5652 292.112 57.4764 292.112 58.5066ZM310.562 71.0663L311 67.025H309.645C308.636 67.025 307.938 66.9656 307.553 66.8467C307.168 66.7279 306.915 66.4637 306.796 66.0543C306.676 65.6449 306.617 64.9119 306.617 63.8554V54.9011H311V50.8598H306.617V45.9864L301.675 46.5015V50.8598H299.285L298.846 54.9011H301.675V65.876C301.675 67.3024 302.127 68.524 303.03 69.5409C303.933 70.5579 305.262 71.0663 307.015 71.0663H310.562Z" fill="white"/>
</g>
<defs>
<filter id="filter0_i" x="138.466" y="54.9373" width="17.6291" height="14.6806" filterUnits="userSpaceOnUse" color-interpolation-filters="sRGB">
<feFlood flood-opacity="0" result="BackgroundImageFix"/>
<feBlend mode="normal" in="SourceGraphic" in2="BackgroundImageFix" result="shape"/>
<feColorMatrix in="SourceAlpha" type="matrix" values="0 0 0 0 0 0 0 0 0 0 0 0 0 0 0 0 0 0 127 0" result="hardAlpha"/>
<feOffset dx="-2.94844"/>
<feGaussianBlur stdDeviation="1.47422"/>
<feComposite in2="hardAlpha" operator="arithmetic" k2="-1" k3="1"/>
<feColorMatrix type="matrix" values="0 0 0 0 0.909804 0 0 0 0 0.905882 0 0 0 0 0.913725 0 0 0 1 0"/>
<feBlend mode="normal" in2="shape" result="effect1_innerShadow"/>
</filter>
<linearGradient id="paint0_linear" x1="406.013" y1="79.0264" x2="406.013" y2="3.4211" gradientUnits="userSpaceOnUse">
<stop stop-color="#FFA246"/>
<stop offset="1" stop-color="#FFA246" stop-opacity="0.47"/>
</linearGradient>
<linearGradient id="paint1_linear" x1="34.4342" y1="17.4053" x2="34.4342" y2="91.2316" gradientUnits="userSpaceOnUse">
<stop stop-color="#FFA246"/>
<stop offset="1" stop-color="#FFA246" stop-opacity="0.47"/>
</linearGradient>
<clipPath id="clip0">
<rect width="437" height="112" fill="white"/>
</clipPath>
</defs>
</svg>

<svg xmlns="http://www.w3.org/2000/svg" xmlns:xlink="http://www.w3.org/1999/xlink" width="437" height="112" fill="none" xmlns:v="https://vecta.io/nano"><style><![CDATA[.B{fill:#45403d}.C{stroke:#45403d}.D{stroke-width:2}.E{stroke-dasharray:5 5}]]></style><g clip-path="url(#E)"><path fill="#000" d="M0 0h437v112H0z"/><g opacity=".5"><path opacity=".6" d="M306.371 9.247l89.737 46.126a3 3 0 0 1 1.629 2.668v123.291c0 2.171-2.234 3.623-4.217 2.742l-89.737-39.836a3 3 0 0 1-1.783-2.742V11.915c0-2.245 2.375-3.694 4.371-2.668z" class="B"/><path d="M313.537 20.45l77.21 39.954a3 3 0 0 1 1.622 2.664v107.068c0 2.173-2.24 3.626-4.224 2.739l-77.211-34.506a3 3 0 0 1-1.776-2.739V23.115c0-2.248 2.382-3.698 4.379-2.664z" class="C D E"/></g><path opacity=".6" d="M333.214-33.7l89.737 46.127a3 3 0 0 1 1.628 2.668v123.292c0 2.17-2.233 3.622-4.217 2.742l-89.737-39.837a3 3 0 0 1-1.783-2.742V-31.032c0-2.245 2.375-3.694 4.372-2.668z" class="B"/><path d="M340.379-22.497l77.21 39.954a3 3 0 0 1 1.621 2.664v107.068c0 2.174-2.239 3.626-4.224 2.739l-77.21-34.506A3 3 0 0 1 336 92.683V-19.833c0-2.248 2.382-3.698 4.379-2.664z" class="C D E"/><path d="M340.026 79.026L472 3.421" stroke="url(#C)" stroke-width="3"/><g fill="#ffa246"><circle cx="374.474" cy="59.79" r="3.579" transform="rotate(180 374.474 59.79)"/><circle cx="339.579" cy="79.474" r="3.579" transform="rotate(180 339.579 79.474)"/><circle cx="428.158" cy="28.474" r="3.579" transform="rotate(180 428.158 28.474)"/></g><g opacity=".5"><path opacity=".6" d="M131.628 85.49L44.144 40.521a3 3 0 0 1-1.629-2.668V-82.386c0-2.17 2.233-3.623 4.217-2.742l87.484 38.836A3 3 0 0 1 136-43.549V82.822c0 2.245-2.375 3.694-4.372 2.668z" class="B"/><path d="M124.632 74.55L49.379 35.609a3 3 0 0 1-1.621-2.664V-71.452c0-2.174 2.24-3.626 4.224-2.739l75.252 33.631a3 3 0 0 1 1.776 2.739V71.886c0 2.248-2.381 3.698-4.378 2.664z" class="C D E"/></g><path opacity=".6" d="M105.418 127.427L17.934 82.458a3 3 0 0 1-1.629-2.668V-40.449c0-2.17 2.233-3.623 4.217-2.742l87.485 38.836a3 3 0 0 1 1.782 2.742v126.371c0 2.245-2.375 3.695-4.371 2.669z" class="B"/><path d="M98.421 116.487L23.169 77.545a3 3 0 0 1-1.621-2.664V-29.516c0-2.174 2.239-3.626 4.224-2.739l75.253 33.631a3 3 0 0 1 1.776 2.739v109.707c0 2.248-2.382 3.698-4.379 2.665z" class="C D E"/><path d="M98.868 17.405L-30 91.232" stroke="url(#D)" stroke-width="3"/><g fill="#ffa246"><circle cx="65.232" cy="36.189" r="3.495"/><circle cx="99.305" cy="16.968" r="3.495"/><circle cx="12.811" cy="66.768" r="3.495"/></g><mask id="A" mask-type="alpha" maskUnits="userSpaceOnUse" x="123" y="41" width="53" height="33"><use xlink:href="#F" fill="#fff"/></mask><g mask="url(#A)"><use xlink:href="#F" fill="#ff8200"/><path fill-rule="evenodd" d="M139.45 41.48h10.1c10.954 0 19.601 15.334 19.601 27.853l2.908 1.672c.586.337.787 1.085.451 1.67-.219.38-.623.614-1.061.614h-53.842c-.676 0-1.224-.548-1.224-1.223 0-.476.276-.908.708-1.109l3.487-1.623c0-12.518 7.918-27.852 18.872-27.852z" fill="#ff9600"/><path d="M123.726 60.085h49.994v4.995h-49.994v-4.995z" fill="#000"/><path d="M149.163 69.618a7.34 7.34 0 0 0 0-14.681c-4.054 0-7.341 3.286-7.341 7.34s3.287 7.34 7.341 7.34z" fill="#000" fill-opacity=".119"/></g><path d="M148.755 69.618a7.34 7.34 0 0 0 0-14.681 7.34 7.34 0 0 0 0 14.681z" fill="#fff"/><g filter="url(#B)"><path d="M148.755 69.618a7.34 7.34 0 0 0 0-14.681 7.34 7.34 0 0 0 0 14.681z" fill="#fff"/></g><path d="M148.755 68.489c3.43 0 6.211-2.781 6.211-6.211s-2.781-6.211-6.211-6.211-6.212 2.781-6.212 6.211 2.781 6.211 6.212 6.211z" stroke="#000" stroke-width="2.258"/><g fill="#ffaa30"><path d="M146.174 45.844c-1.181-2.384-1.553-3.095-1.317-4.044.367-1.474 2.028-2.823 3.932-2.8 1.662.02 3.181 1.084 3.829 2.696.101.325-.119 1.447-1.415 4.215l-2.441 5.22-2.588-5.288z"/><path d="M145.799 45.84c-1.174-2.371-1.545-3.079-1.31-4.022.365-1.466 2.016-2.808 3.91-2.785 1.653.02 3.164 1.079 3.808 2.682.1.323-.118 1.439-1.407 4.193l-2.428 5.192-2.573-5.26zm-7.998 3.43a19.62 19.62 0 0 0-2.775-2.72c-.132-.053-1.935-.734-3.459.403-1.268.946-1.795 2.743-1.242 4.399 1.03-.113 2.29-.148 3.705.041 3.074.412 5.367 1.68 6.703 2.582-.588-1.317-1.506-2.999-2.932-4.705z"/><path d="M140.423 53.577c-.573-1.25-1.465-2.846-2.849-4.466a18.93 18.93 0 0 0-2.691-2.584c-.128-.05-1.874-.7-3.345.373-1.224.893-1.731 2.595-1.191 4.166.996-.105 2.215-.135 3.584.048 2.975.398 5.197 1.605 6.492 2.463z"/></g><path d="M159.584 49.627a19.66 19.66 0 0 1 2.774-2.72c.133-.053 1.936-.734 3.46.403 1.267.946 1.795 2.743 1.242 4.399-1.03-.113-2.29-.148-3.706.041-3.073.412-5.366 1.68-6.703 2.582a20.17 20.17 0 0 1 2.933-4.705z" fill="#ff8a00"/><path d="M156.962 53.577a19.2 19.2 0 0 1 2.848-4.466 18.99 18.99 0 0 1 2.692-2.584c.128-.05 1.874-.7 3.345.373 1.224.893 1.73 2.595 1.191 4.166-.996-.105-2.215-.135-3.585.048-2.975.398-5.196 1.605-6.491 2.463z" fill="#ffaa30"/><path d="M191.137 70.67V58.665h12.751V70.67h5.101V42.936h-5.101v10.975h-12.751V42.936h-5.101V70.67h5.101zm32.835.396c1.328 0 2.556-.139 3.686-.416s2.118-.641 2.968-1.09l-.239-4.16a11.54 11.54 0 0 1-5.977 1.624c-1.567 0-2.909-.429-4.025-1.288s-1.806-2.159-2.072-3.903h12.871c.213-1.004.319-1.902.319-2.694 0-1.611-.326-3.064-.976-4.358s-1.621-2.324-2.909-3.09-2.863-1.149-4.722-1.149c-2.019 0-3.759.456-5.22 1.367s-2.577 2.133-3.348 3.665-1.155 3.223-1.155 5.072c0 1.928.405 3.678 1.215 5.25s2.032 2.826 3.666 3.764 3.606 1.406 5.918 1.406zm2.51-12.56h-8.049c.265-1.189.77-2.139 1.514-2.853s1.727-1.07 2.949-1.07 2.125.396 2.709 1.189a4.48 4.48 0 0 1 .877 2.734zm15.302 12.56l.438-4.041c-.744 0-1.268-.046-1.574-.139s-.518-.357-.638-.792-.179-1.182-.179-2.239V40.955h-4.941v24.921c0 1.532.425 2.78 1.275 3.744s2.125 1.446 3.826 1.446h1.793zm8.527-.396V56.288c1.01-1.136 2.298-1.704 3.865-1.704 1.329 0 2.298.436 2.909 1.307s.917 2.245.917 4.121V70.67h4.941V59.656c0-1.611.332-2.859.996-3.744s1.647-1.327 2.949-1.327c1.328 0 2.285.436 2.869 1.307s.877 2.245.877 4.121V70.67h4.941V59.656c0-2.879-.644-5.118-1.933-6.716s-3.261-2.397-5.917-2.397c-1.355 0-2.59.238-3.706.713s-2.019 1.149-2.71 2.021c-1.248-1.823-3.148-2.734-5.698-2.734-2.099 0-4.051.634-5.858 1.902l-.159-1.585h-4.224v19.81h4.941zm39.29.396c1.329 0 2.557-.139 3.686-.416s2.119-.641 2.969-1.09l-.239-4.16a11.54 11.54 0 0 1-5.977 1.624c-1.568 0-2.909-.429-4.025-1.288s-1.806-2.159-2.072-3.903h12.871c.212-1.004.319-1.902.319-2.694 0-1.611-.326-3.064-.977-4.358s-1.62-2.324-2.908-3.09-2.863-1.149-4.722-1.149c-2.019 0-3.759.456-5.221 1.367a9.02 9.02 0 0 0-3.347 3.665c-.77 1.532-1.155 3.223-1.155 5.072 0 1.928.405 3.678 1.215 5.25s2.032 2.826 3.666 3.764 3.606 1.406 5.917 1.406zm2.511-12.56h-8.049c.265-1.189.77-2.139 1.514-2.853s1.727-1.07 2.949-1.07 2.125.396 2.709 1.189a4.48 4.48 0 0 1 .877 2.734zm18.45 12.56l.438-4.041h-1.355c-1.009 0-1.707-.059-2.092-.178a1.09 1.09 0 0 1-.757-.792c-.12-.409-.179-1.142-.179-2.199v-8.954H311V50.86h-4.383v-4.873l-4.942.515v4.358h-2.39l-.439 4.041h2.829v10.975c0 1.426.452 2.648 1.355 3.665s2.232 1.525 3.985 1.525h3.547z" fill="#fff"/></g><defs><filter id="B" x="138.466" y="54.937" width="17.629" height="14.681" filterUnits="userSpaceOnUse" color-interpolation-filters="sRGB"><feFlood flood-opacity="0"/><feBlend in="SourceGraphic" result="B"/><feColorMatrix in="SourceAlpha" values="0 0 0 0 0 0 0 0 0 0 0 0 0 0 0 0 0 0 127 0" result="C"/><feOffset dx="-2.94844"/><feGaussianBlur stdDeviation="1.474"/><feComposite in2="C" operator="arithmetic" k2="-1" k3="1"/><feColorMatrix values="0 0 0 0 0.909804 0 0 0 0 0.905882 0 0 0 0 0.913725 0 0 0 1 0"/><feBlend in2="B"/></filter><linearGradient id="C" x1="406.013" y1="79.026" x2="406.013" y2="3.421" gradientUnits="userSpaceOnUse"><stop stop-color="#ffa246"/><stop offset="1" stop-color="#ffa246" stop-opacity=".47"/></linearGradient><linearGradient id="D" x1="34.434" y1="17.405" x2="34.434" y2="91.232" gradientUnits="userSpaceOnUse"><stop stop-color="#ffa246"/><stop offset="1" stop-color="#ffa246" stop-opacity=".47"/></linearGradient><clipPath id="E"><path fill="#fff" d="M0 0h437v112H0z"/></clipPath><path id="F" d="M148.746 41.687h.828c16.159 0 24.428 16.315 24.428 27.101a2.43 2.43 0 0 1-1.251 4.517h-47.367c-1.317 0-2.384-1.067-2.384-2.384 0-.903.51-1.729 1.318-2.133 0-10.785 8.091-27.101 24.428-27.101z"/></defs></svg>
